src/icons/icons_set_02/057-walk.svg

<svg height="50" viewBox="0 0 50 50" width="50" xmlns="http://www.w3.org/2000/svg"><path d="m12.5744947 17.1630928-.5234569 6.2487672 8.704883 13.1330843c.6102515.9206883.3585927 2.1617602-.5620956 2.7720117-.9206883.6102514-2.1617602.3585927-2.7720116-.5620956l-9.08886722-13.7124024c-.24869506-.375207-.36354252-.8233397-.32596575-1.2719125l.73178085-8.7356339-2.73876148 1.9435382v5.9590502c0 1.1045695-.8954305 2-2 2s-2-.8954305-2-2v-6.9921875c0-.6480779.31402402-1.2559817.84254522-1.6310421l6.96875-4.94531253c.92822138-.65870415 2.21826038-.41105909 2.83659018.54453199l4.0233644 6.21786534 6.109664 3.0123264c.9906986.4884569 1.3978459 1.6875493.909389 2.6782478-.4884569.9906986-1.6875493 1.3978459-2.6782479.909389l-6.604593-3.2563476c-.3239014-.1596973-.5985199-.4041146-.7947059-.7073083zm4.4255053-13.66327451c0 1.93271377-1.5673866 3.50018171-3.5 3.50018171-1.93225 0-3.5-1.56746794-3.5-3.50018171 0-1.93235035 1.56775-3.49981829 3.5-3.49981829 1.9326134 0 3.5 1.56746794 3.5 3.49981829zm-11.08925821 24.61555161c.61523651-.9173646 1.85765519-1.1622878 2.77501979-.5470513.91736461.6152365 1.16228783 1.8576552.54705132 2.7750198l-5.01855469 7.4830482c-.61523651.9173646-1.85765519 1.1622878-2.77501979.5470513-.91736461-.6152365-1.16228783-1.8576552-.54705132-2.7750198z" fill="#1d1d1b" fill-rule="evenodd" transform="translate(14 6)"/></svg>

<?xml version="1.0" encoding="UTF-8"?>
<svg width="50px" height="50px" viewBox="0 0 50 50" version="1.1" xmlns="http://www.w3.org/2000/svg" xmlns:xlink="http://www.w3.org/1999/xlink">
    <!-- Generator: Sketch 52.6 (67491) - http://www.bohemiancoding.com/sketch -->
    <title>057-walk</title>
    <desc>Created with Sketch.</desc>
    <g id="057-walk" stroke="none" stroke-width="1" fill="none" fill-rule="evenodd">
        <g id="Group-7" transform="translate(14.000000, 6.000000)" fill="#1D1D1B">
            <path d="M12.5744947,17.1630928 L12.0510378,23.41186 L20.7559208,36.5449443 C21.3661723,37.4656326 21.1145135,38.7067045 20.1938252,39.316956 C19.2731369,39.9272074 18.032065,39.6755487 17.4218136,38.7548604 L8.33294638,25.042458 C8.08425132,24.667251 7.96940386,24.2191183 8.00698063,23.7705455 L8.73876148,15.0349116 L6,16.9784498 L6,22.9375 C6,24.0420695 5.1045695,24.9375 4,24.9375 C2.8954305,24.9375 2,24.0420695 2,22.9375 L2,15.9453125 C2,15.2972346 2.31402402,14.6893308 2.84254522,14.3142704 L9.81129522,9.36895787 C10.7395166,8.71025372 12.0295556,8.95789878 12.6478854,9.91348986 L16.6712498,16.1313552 L22.7809138,19.1436816 C23.7716124,19.6321385 24.1787597,20.8312309 23.6903028,21.8219294 C23.2018459,22.812628 22.0027535,23.2197753 21.0120549,22.7313184 L14.4074619,19.4749708 C14.0835605,19.3152735 13.808942,19.0708562 13.612756,18.7676625 L12.5744947,17.1630928 Z M17,3.49981829 C17,5.43253206 15.4326134,7 13.5,7 C11.56775,7 10,5.43253206 10,3.49981829 C10,1.56746794 11.56775,0 13.5,0 C15.4326134,0 17,1.56746794 17,3.49981829 Z M5.91074179,28.1153699 C6.5259783,27.1980053 7.76839698,26.9530821 8.68576158,27.5683186 C9.60312619,28.1835551 9.84804941,29.4259738 9.2328129,30.3433384 L4.21425821,37.8263866 C3.5990217,38.7437512 2.35660302,38.9886744 1.43923842,38.3734379 C0.521873811,37.7582014 0.276950594,36.5157827 0.892187102,35.5984181 L5.91074179,28.1153699 Z" id="Combined-Shape"></path>
        </g>
    </g>
</svg>
